images/Services/Cardio.svg

<svg width="73" height="102" viewBox="0 0 73 102"  xmlns="http://www.w3.org/2000/svg">
<path d="M65.94 51.46C64.463 49.3119 62.5433 47.5048 60.31 46.16C60.7168 44.8657 60.9225 43.5167 60.92 42.16C60.92 41.8867 60.92 41.6167 60.92 41.35H62.3C62.8304 41.35 63.3391 41.1393 63.7142 40.7642C64.0893 40.3891 64.3 39.8804 64.3 39.35C64.3 38.8196 64.0893 38.3109 63.7142 37.9358C63.3391 37.5607 62.8304 37.35 62.3 37.35H60C59.4925 36.0445 58.784 34.8265 57.9 33.74L58.8 32.85C59.0413 32.6823 59.2426 32.4635 59.3898 32.2091C59.5369 31.9548 59.6262 31.6711 59.6512 31.3783C59.6763 31.0856 59.6365 30.7909 59.5348 30.5152C59.433 30.2395 59.2718 29.9897 59.0625 29.7834C58.8532 29.5771 58.6011 29.4195 58.324 29.3217C58.0469 29.2239 57.7517 29.1884 57.4593 29.2177C57.1669 29.247 56.8846 29.3403 56.6323 29.4911C56.3801 29.6418 56.1642 29.8463 56 30.09L55 31.09C53.3601 29.9938 51.4936 29.2828 49.54 29.01C52.14 27 55.6 26 59.81 26.1C60.3404 26.1 60.8491 25.8893 61.2242 25.5142C61.5993 25.1391 61.81 24.6304 61.81 24.1V16.55C61.812 16.0493 61.6262 15.5661 61.2892 15.1958C60.9523 14.8255 60.4886 14.5951 59.99 14.55C57.0314 14.3632 54.0618 14.4536 51.12 14.82C49.2577 10.9664 46.2083 7.81182 42.42 5.82L43.82 3.72C44.0097 3.50671 44.1516 3.25527 44.236 2.98259C44.3205 2.70992 44.3456 2.42232 44.3097 2.13913C44.2738 1.85594 44.1777 1.58372 44.0278 1.34077C43.8779 1.09782 43.6778 0.889761 43.4408 0.730586C43.2039 0.571412 42.9356 0.464807 42.654 0.417938C42.3724 0.371068 42.084 0.385019 41.8083 0.458854C41.5326 0.532689 41.2758 0.664696 41.0553 0.846002C40.8348 1.02731 40.6557 1.25371 40.53 1.51L38.53 4.51C37.6944 4.36566 36.848 4.29207 36 4.29C35.49 4.29 35 4.29 34.48 4.37V2C34.48 1.46957 34.2693 0.960859 33.8942 0.585786C33.5191 0.210714 33.0104 0 32.48 0C31.9496 0 31.4409 0.210714 31.0658 0.585786C30.6907 0.960859 30.48 1.46957 30.48 2V5.4C28.5312 6.19778 26.7476 7.35068 25.22 8.8C23.9958 9.9677 22.9149 11.2769 22 12.7C21.6262 11.9584 21.0549 11.3345 20.3491 10.8969C19.6434 10.4593 18.8304 10.225 18 10.22H12.57C11.3739 10.22 10.2267 10.6952 9.38095 11.5409C8.53516 12.3867 8.06 13.5339 8.06 14.73V35C7.0134 35.8141 6.04882 36.7284 5.18 37.73C0.83 42.71 0 49.22 0 53.8C0.05 59 1.3 64.26 3.28 67.65C3.58 68.45 3.85 69.22 4.11 69.97C5.52232 74.667 7.93416 79.0029 11.18 82.68C18.5342 91.2437 28.4143 97.255 39.4 99.85L44.66 101.09C46.1083 101.433 47.5915 101.608 49.08 101.61C53.1549 101.618 57.1253 100.322 60.41 97.91L61.75 96.91C64.8521 94.6513 67.4233 91.7421 69.2836 88.386C71.1439 85.0298 72.2485 81.3077 72.52 77.48C72.7136 74.685 72.6265 71.8776 72.26 69.1C71.7497 63.4958 69.9679 58.0818 67.05 53.27V53.2L65.94 51.46ZM57 42.18C57.0007 42.963 56.8998 43.7429 56.7 44.5C53.8775 43.5792 50.8693 43.3798 47.95 43.92C46.6137 43.0326 45.1727 42.3138 43.66 41.78C43.8813 38.7088 44.7432 35.718 46.19 33C46.6759 32.9198 47.1675 32.8797 47.66 32.88C48.8847 32.8747 50.0983 33.1114 51.2312 33.5764C52.3642 34.0414 53.3941 34.7256 54.262 35.5897C55.1298 36.4538 55.8184 37.4808 56.2883 38.6118C56.7581 39.7427 57 40.9553 57 42.18ZM57.94 18.47V22.14C53.4256 22.1576 49.0877 23.8956 45.81 27C41.45 31.27 40.14 37.2 39.74 40.56C37.4939 40.0134 35.2163 39.606 32.92 39.34C32.32 38.79 31.72 38.26 31.12 37.76V37.62C31.12 32.29 32.85 28 36.24 24.86C42.7 18.94 53.59 18.42 57.89 18.47H57.94ZM22.47 21.21L22.56 20.96C24.75 13.37 30.13 8.26 36 8.26C36.9921 8.26338 37.9787 8.40817 38.93 8.69C42.3861 9.87654 45.2678 12.3226 47 15.54C42.39 16.54 37.4 18.42 33.55 21.96C29.8911 25.3455 27.6477 29.9894 27.27 34.96C25.758 34.0101 24.1446 33.232 22.46 32.64L22.47 21.21ZM12 14.73C12 14.5868 12.0569 14.4494 12.1582 14.3482C12.2594 14.2469 12.3968 14.19 12.54 14.19H18C18.1432 14.19 18.2806 14.2469 18.3818 14.3482C18.4831 14.4494 18.54 14.5868 18.54 14.73V31.83C17.8741 31.7843 17.2059 31.7843 16.54 31.83C15.002 31.8954 13.4851 32.213 12.05 32.77L12 14.73ZM6.12 64.5C3.61 58.94 2.26 47.1 8.12 40.37C10.69 37.44 13.56 35.89 16.65 35.75C20.6 35.57 25.15 37.75 29.83 41.97C27.3365 46.7661 23.3191 50.597 18.41 52.86C10.81 56.31 7.57 61 6.19 64.33C6.16242 64.3848 6.13902 64.4417 6.12 64.5ZM68.54 71.73C68.68 73.5473 68.68 75.3727 68.54 77.19C68.3117 80.4456 67.3745 83.612 65.794 86.4674C64.2134 89.3228 62.0277 91.7981 59.39 93.72L58.05 94.72C55.4408 96.6357 52.2869 97.666 49.05 97.66C47.8681 97.6587 46.6903 97.5212 45.54 97.25L40.31 96C30.1496 93.6001 21.0117 88.0403 14.21 80.12C11.9273 77.5847 10.1216 74.6576 8.88 71.48C8.98105 71.2087 9.02199 70.9187 9 70.63C9 70.54 8 61.97 20.1 56.47C25.9672 53.8198 30.7419 49.2288 33.62 43.47C42.71 44.72 45.83 47.28 46.07 47.47C46.2978 47.7134 46.5874 47.8904 46.908 47.982C47.2286 48.0736 47.568 48.0763 47.89 47.99L48.39 47.88C54.74 46.55 61.07 50.05 63.98 55.88C64.28 56.47 64.46 56.39 64.82 57.16C66.6593 60.4673 67.8346 64.102 68.28 67.86" fill="#87AD3B"/>
</svg>
<?xml-stylesheet type="text/css" href="./css/style.min.css"?>

<?xml-stylesheet type="text/css" href="/css/style.min.css"?><svg viewBox="0 0 73 102" xmlns="http://www.w3.org/2000/svg"><path d="M65.94 51.46a18.27 18.27 0 00-5.63-5.3c.407-1.294.612-2.643.61-4v-.81h1.38a2 2 0 000-4H60a13.43 13.43 0 00-2.1-3.61l.9-.89a2 2 0 10-2.8-2.76l-1 1a13.08 13.08 0 00-5.46-2.08C52.14 27 55.6 26 59.81 26.1a2 2 0 002-2v-7.55a2 2 0 00-1.82-2 47.533 47.533 0 00-8.87.27 20 20 0 00-8.7-9l1.4-2.1a2 2 0 10-3.29-2.21l-2 3A15.08 15.08 0 0036 4.29c-.51 0-1 0-1.52.08V2a2 2 0 10-4 0v3.4a17 17 0 00-5.26 3.4A21.331 21.331 0 0022 12.7a4.51 4.51 0 00-4-2.48h-5.43a4.51 4.51 0 00-4.51 4.51V35a20.364 20.364 0 00-2.88 2.73C.83 42.71 0 49.22 0 53.8.05 59 1.3 64.26 3.28 67.65c.3.8.57 1.57.83 2.32a34 34 0 007.07 12.71A53.37 53.37 0 0039.4 99.85l5.26 1.24c1.448.343 2.932.518 4.42.52a19.078 19.078 0 0011.33-3.7l1.34-1a26.341 26.341 0 0010.77-19.43 41.918 41.918 0 00-.26-8.38 37 37 0 00-5.21-15.83v-.07l-1.11-1.74zM57 42.18c0 .783-.1 1.563-.3 2.32a17.781 17.781 0 00-8.75-.58 19.462 19.462 0 00-4.29-2.14A22.06 22.06 0 0146.19 33c.486-.08.977-.12 1.47-.12a9.299 9.299 0 019.34 9.3zm.94-23.71v3.67A17.74 17.74 0 0045.81 27c-4.36 4.27-5.67 10.2-6.07 13.56a56.184 56.184 0 00-6.82-1.22c-.6-.55-1.2-1.08-1.8-1.58v-.14c0-5.33 1.73-9.62 5.12-12.76 6.46-5.92 17.35-6.44 21.65-6.39h.05zm-35.47 2.74l.09-.25c2.19-7.59 7.57-12.7 13.44-12.7a10.44 10.44 0 012.93.43A14.52 14.52 0 0147 15.54c-4.61 1-9.6 2.88-13.45 6.42a19.75 19.75 0 00-6.28 13 23.999 23.999 0 00-4.81-2.32l.01-11.43zM12 14.73a.54.54 0 01.54-.54H18a.54.54 0 01.54.54v17.1a14.605 14.605 0 00-2 0 14.06 14.06 0 00-4.49.94L12 14.73zM6.12 64.5c-2.51-5.56-3.86-17.4 2-24.13 2.57-2.93 5.44-4.48 8.53-4.62 3.95-.18 8.5 2 13.18 6.22a24.37 24.37 0 01-11.42 10.89C10.81 56.31 7.57 61 6.19 64.33a1.22 1.22 0 00-.07.17zm62.42 7.23c.14 1.817.14 3.643 0 5.46a22.392 22.392 0 01-9.15 16.53l-1.34 1a15.16 15.16 0 01-9 2.94 15.37 15.37 0 01-3.51-.41L40.31 96a49.36 49.36 0 01-26.1-15.88 28.312 28.312 0 01-5.33-8.64 2 2 0 00.12-.85c0-.09-1-8.66 11.1-14.16a28 28 0 0013.52-13c9.09 1.25 12.21 3.81 12.45 4a1.84 1.84 0 001.82.52l.5-.11c6.35-1.33 12.68 2.17 15.59 8 .3.59.48.51.84 1.28a29.05 29.05 0 013.46 10.7" fill="#87AD3B"/></svg>
